X: 37362
T: Slave's Lament, The
R: reel
M: 4/4
K: Dminor
FE|DEFG A2 AA|Af ed {d}^c2 AB|(G>F) GA Bd cB|{B}A6 (cB)|
AF DD D2 GA|BAGF E2 A^c|d2 ^cd AF EF|D6 (cB)|
AF DD D2 GA|BA GF E2 A^c|d2 ^cd AF EF|D4||

